images/ico-bicro-marche-detail.svg

<svg xmlns="http://www.w3.org/2000/svg" width="24" height="24" fill="none" viewBox="0 0 24 24"><path fill="#fdd" d="M15.5684 14.7429C18.8765 14.7429 21.5582 12.0566 21.5582 8.74285C21.5582 5.42915 18.8765 2.74286 15.5684 2.74286C12.2603 2.74286 9.57858 5.42915 9.57858 8.74285C9.57858 12.0566 12.2603 14.7429 15.5684 14.7429Z"/><g clip-path="url(#clip0_3222:6301)"><path fill="#000638" d="M9.6 5.28001C8.72 5.28001 8 6.00001 8 6.88001C8 7.76001 8.72 8.48001 9.6 8.48001C10.48 8.48001 11.2 7.76001 11.2 6.88001C11.2 6.00001 10.48 5.28001 9.6 5.28001ZM9.6 16.48C8.72 16.48 8 17.2 8 18.08C8 18.96 8.72 19.68 9.6 19.68C10.48 19.68 11.2 18.96 11.2 18.08C11.2 17.2 10.48 16.48 9.6 16.48ZM9.6 10.88C8.72 10.88 8 11.6 8 12.48C8 13.36 8.72 14.08 9.6 14.08C10.48 14.08 11.2 13.36 11.2 12.48C11.2 11.6 10.48 10.88 9.6 10.88Z"/></g><defs><clipPath id="clip0_3222:6301"><path fill="#fff" d="M0 0H19.2V19.2H0z" transform="translate(0 2.88)"/></clipPath></defs></svg>

<svg xmlns="http://www.w3.org/2000/svg" width="24" height="24" fill="none" viewBox="0 0 24 24"><path fill="#FDD" d="M15.568 14.743a5.995 5.995 0 0 0 5.99-6c0-3.314-2.681-6-5.99-6a5.995 5.995 0 0 0-5.99 6c0 3.314 2.682 6 5.99 6"/><g clip-path="url(#a)"><path fill="#000638" d="M9.6 5.28C8.72 5.28 8 6 8 6.88s.72 1.6 1.6 1.6 1.6-.72 1.6-1.6-.72-1.6-1.6-1.6m0 11.2c-.88 0-1.6.72-1.6 1.6s.72 1.6 1.6 1.6 1.6-.72 1.6-1.6-.72-1.6-1.6-1.6m0-5.6c-.88 0-1.6.72-1.6 1.6s.72 1.6 1.6 1.6 1.6-.72 1.6-1.6-.72-1.6-1.6-1.6"/></g><defs><clipPath id="a"><path fill="#fff" d="M0 2.88h19.2v19.2H0z"/></clipPath></defs></svg>
